X: 07121
T: The Braes of Tulliemet [Am]
R:strathspey
B:Neil Stewart 1761
B:RSCDS 7-12
Z:John Chambers <jc:trillian.mit.edu>
M:4/4
L:1/8
K:Ador
B \
| "Am"A<e e>d e>d e<g | "G"B<G d>G e>G d>B \
| "Am"A<e e>d e>d e<a | "Em"g>e d>B "Am"A/A/A A :|
e \
| "Am"a>e a<c' a>e a<c' | "G"g>d g<b g>d g<b \
| "Am"a>e a<c' a>e a<c' | "Em"g>e d>B "Am"A/A/A A |]
e \
| "Am"a>e a<c' (3eab (3c'ba | "G"g>d g<b (3dga (3bag \
| "Am"a<e e>f "G"g>a b>a | "Em"g>e d>B "Am"A/A/A A |]
%%center Book02/07121-Braes_of_Tulliemet_Am-JC.abc

%%sep 1 1 500
%%sep 1 1 500

